src/gui/emoticons/ill.svg

<?xml version="1.0" encoding="UTF-8"?>
<svg xmlns="http://www.w3.org/2000/svg" xmlns:xlink="http://www.w3.org/1999/xlink" width="16pt" height="16pt" viewBox="0 0 16 16" version="1.1">
<defs>
<linearGradient id="linear0" gradientUnits="userSpaceOnUse" x1="-10016" y1="-3234.3" x2="-10016" y2="-3146.3" gradientTransform="matrix(-0.125,0,0,-0.125,-1244,-390.75)">
<stop offset="0" style="stop-color:rgb(25.098039%,75.294118%,90.588235%);stop-opacity:1;"/>
<stop offset="0.138" style="stop-color:rgb(27.45098%,77.254902%,78.823529%);stop-opacity:1;"/>
<stop offset="0.5325" style="stop-color:rgb(33.333333%,83.137255%,47.45098%);stop-opacity:1;"/>
<stop offset="0.8126" style="stop-color:rgb(37.254902%,86.666667%,27.45098%);stop-opacity:1;"/>
<stop offset="0.95" style="stop-color:rgb(38.823529%,88.235294%,20%);stop-opacity:1;"/>
</linearGradient>
<radialGradient id="radial0" gradientUnits="userSpaceOnUse" cx="30.792" cy="85.808" fx="30.792" fy="85.808" r="21.667" gradientTransform="matrix(0.125,0,0,0.0913375,0,3.245125)">
<stop offset="0" style="stop-color:rgb(92.941176%,46.666667%,43.921569%);stop-opacity:1;"/>
<stop offset="0.9" style="stop-color:rgb(92.941176%,46.666667%,43.921569%);stop-opacity:0;"/>
</radialGradient>
<radialGradient id="radial1" gradientUnits="userSpaceOnUse" cx="97.208" cy="85.336" fx="97.208" fy="85.336" r="21.667" gradientTransform="matrix(0.125,0,0,0.0913375,0,3.22575)">
<stop offset="0" style="stop-color:rgb(92.941176%,46.666667%,43.921569%);stop-opacity:1;"/>
<stop offset="0.9" style="stop-color:rgb(92.941176%,46.666667%,43.921569%);stop-opacity:0;"/>
</radialGradient>
</defs>
<g id="surface1">
<path style=" stroke:none;fill-rule:nonzero;fill:url(#linear0);" d="M 8 14.984375 C 6.066406 14.984375 4.273438 14.347656 2.953125 13.183594 C 1.511719 11.910156 0.75 10.117188 0.75 8 C 0.75 5.890625 1.511719 4.105469 2.953125 2.828125 C 4.277344 1.65625 6.070312 1.015625 8 1.015625 C 11.492188 1.015625 15.25 3.199219 15.25 8 C 15.25 12.800781 11.492188 14.984375 8 14.984375 Z M 8 14.984375 "/>
<path style=" stroke:none;fill-rule:nonzero;fill:rgb(27.843137%,66.27451%,69.019608%);fill-opacity:1;" d="M 8 1.265625 C 9.878906 1.265625 11.613281 1.878906 12.878906 2.992188 C 14.265625 4.210938 15 5.941406 15 8 C 15 10.066406 14.265625 11.800781 12.878906 13.019531 C 11.617188 14.125 9.882812 14.738281 8 14.738281 C 6.125 14.738281 4.390625 14.117188 3.121094 12.996094 C 1.734375 11.769531 1 10.042969 1 8 C 1 5.964844 1.734375 4.242188 3.121094 3.015625 C 4.394531 1.886719 6.128906 1.265625 8 1.265625 M 8 0.765625 C 4.105469 0.765625 0.5 3.355469 0.5 8 C 0.5 12.671875 4.105469 15.234375 8 15.234375 C 11.894531 15.234375 15.5 12.734375 15.5 8 C 15.5 3.289062 11.894531 0.765625 8 0.765625 Z M 8 0.765625 "/>
<path style=" stroke:none;fill-rule:nonzero;fill:url(#radial0);" d="M 6.339844 11.082031 C 6.339844 10.027344 5.222656 9.171875 3.847656 9.171875 C 2.472656 9.171875 1.359375 10.027344 1.359375 11.082031 C 1.359375 12.136719 2.472656 12.992188 3.847656 12.992188 C 5.222656 12.992188 6.339844 12.136719 6.339844 11.082031 Z M 6.339844 11.082031 "/>
<path style=" stroke:none;fill-rule:nonzero;fill:url(#radial1);" d="M 14.640625 11.019531 C 14.640625 9.964844 13.527344 9.109375 12.152344 9.109375 C 10.777344 9.109375 9.660156 9.964844 9.660156 11.019531 C 9.660156 12.074219 10.777344 12.929688 12.152344 12.929688 C 13.527344 12.929688 14.640625 12.074219 14.640625 11.019531 Z M 14.640625 11.019531 "/>
<path style="fill:none;stroke-width:5.2632;stroke-linecap:round;stroke-linejoin:round;stroke:rgb(14.117647%,14.117647%,14.117647%);stroke-opacity:1;stroke-miterlimit:10;" d="M 42.875 79.625 C 44.8125 81.8125 46.21875 86.3125 46.15625 89.25 C 46.09375 92.1875 44.90625 95.09375 42.875 97.21875 " transform="matrix(0.125,0,0,0.125,0,0)"/>
<path style="fill:none;stroke-width:5.2632;stroke-linecap:round;stroke-linejoin:round;stroke:rgb(14.117647%,14.117647%,14.117647%);stroke-opacity:1;stroke-miterlimit:10;" d="M 85.125 79.375 C 83.1875 81.59375 81.78125 86.3125 81.84375 89.25 C 81.90625 92.1875 83.09375 95.09375 85.125 97.21875 " transform="matrix(0.125,0,0,0.125,0,0)"/>
<path style="fill:none;stroke-width:5.2632;stroke-linecap:round;stroke-linejoin:round;stroke:rgb(14.117647%,14.117647%,14.117647%);stroke-opacity:1;stroke-miterlimit:10;" d="M 46.15625 89.25 C 46.15625 89.25 50.21875 84.1875 63.34375 84.1875 C 76.46875 84.1875 81.84375 89.25 81.84375 89.25 " transform="matrix(0.125,0,0,0.125,0,0)"/>
<path style=" stroke:none;fill-rule:nonzero;fill:rgb(14.117647%,14.117647%,14.117647%);fill-opacity:1;" d="M 10.34375 5.835938 C 10.867188 5.835938 11.34375 6.277344 11.34375 7.015625 C 11.34375 7.75 10.867188 8.191406 10.34375 8.191406 C 9.820312 8.191406 9.34375 7.75 9.34375 7.015625 C 9.34375 6.277344 9.820312 5.835938 10.34375 5.835938 Z M 10.34375 5.835938 "/>
<path style=" stroke:none;fill-rule:nonzero;fill:rgb(14.117647%,14.117647%,14.117647%);fill-opacity:1;" d="M 5.648438 5.835938 C 5.125 5.835938 4.648438 6.277344 4.648438 7.015625 C 4.648438 7.75 5.125 8.191406 5.648438 8.191406 C 6.171875 8.191406 6.648438 7.75 6.648438 7.015625 C 6.648438 6.277344 6.171875 5.835938 5.648438 5.835938 Z M 5.648438 5.835938 "/>
<path style=" stroke:none;fill-rule:nonzero;fill:rgb(42.745098%,29.803922%,25.490196%);fill-opacity:1;" d="M 6.386719 4.070312 C 6.386719 4.070312 6.386719 4.105469 6.382812 4.164062 C 6.378906 4.179688 6.378906 4.195312 6.375 4.21875 C 6.371094 4.238281 6.363281 4.265625 6.359375 4.289062 C 6.351562 4.316406 6.34375 4.34375 6.335938 4.375 C 6.328125 4.402344 6.316406 4.425781 6.304688 4.457031 C 6.285156 4.515625 6.257812 4.574219 6.222656 4.636719 C 6.191406 4.699219 6.148438 4.761719 6.105469 4.824219 C 6.054688 4.882812 6.007812 4.945312 5.949219 5 C 5.894531 5.058594 5.828125 5.109375 5.765625 5.160156 C 5.699219 5.207031 5.632812 5.253906 5.558594 5.292969 C 5.492188 5.332031 5.414062 5.359375 5.34375 5.390625 C 5.273438 5.414062 5.203125 5.4375 5.132812 5.453125 C 5.0625 5.464844 4.996094 5.476562 4.9375 5.480469 C 4.875 5.488281 4.820312 5.484375 4.769531 5.484375 C 4.71875 5.480469 4.675781 5.476562 4.640625 5.46875 C 4.570312 5.457031 4.53125 5.449219 4.53125 5.449219 C 4.410156 5.417969 4.335938 5.296875 4.367188 5.179688 C 4.386719 5.101562 4.445312 5.042969 4.515625 5.019531 L 4.554688 5.007812 C 4.554688 5.007812 4.582031 5 4.632812 4.988281 C 4.660156 4.984375 4.6875 4.972656 4.722656 4.960938 C 4.757812 4.953125 4.792969 4.941406 4.832031 4.925781 C 4.875 4.914062 4.917969 4.894531 4.960938 4.875 C 5.007812 4.859375 5.050781 4.832031 5.097656 4.8125 C 5.144531 4.785156 5.191406 4.761719 5.238281 4.730469 C 5.285156 4.703125 5.328125 4.667969 5.375 4.636719 C 5.417969 4.601562 5.464844 4.570312 5.503906 4.53125 C 5.546875 4.496094 5.582031 4.457031 5.621094 4.421875 C 5.652344 4.382812 5.695312 4.347656 5.722656 4.308594 C 5.753906 4.269531 5.78125 4.234375 5.804688 4.203125 C 5.832031 4.164062 5.855469 4.136719 5.871094 4.109375 C 5.878906 4.097656 5.886719 4.085938 5.894531 4.074219 C 5.90625 4.0625 5.914062 4.046875 5.921875 4.03125 C 5.949219 3.980469 5.96875 3.949219 5.96875 3.949219 C 6.03125 3.839844 6.171875 3.804688 6.28125 3.871094 C 6.351562 3.910156 6.390625 3.988281 6.386719 4.070312 Z M 6.386719 4.070312 "/>
<path style=" stroke:none;fill-rule:nonzero;fill:rgb(42.745098%,29.803922%,25.490196%);fill-opacity:1;" d="M 10.035156 3.945312 C 10.035156 3.945312 10.054688 3.976562 10.082031 4.03125 C 10.089844 4.042969 10.097656 4.0625 10.105469 4.074219 C 10.113281 4.082031 10.125 4.097656 10.132812 4.109375 C 10.148438 4.132812 10.171875 4.164062 10.195312 4.199219 C 10.21875 4.234375 10.25 4.269531 10.28125 4.304688 C 10.308594 4.34375 10.347656 4.378906 10.382812 4.417969 C 10.417969 4.453125 10.457031 4.492188 10.5 4.527344 C 10.539062 4.566406 10.582031 4.597656 10.628906 4.632812 C 10.671875 4.664062 10.71875 4.703125 10.765625 4.726562 C 10.8125 4.757812 10.859375 4.785156 10.90625 4.808594 C 10.953125 4.828125 10.996094 4.855469 11.042969 4.875 C 11.085938 4.890625 11.128906 4.910156 11.167969 4.921875 C 11.207031 4.9375 11.246094 4.953125 11.28125 4.960938 C 11.3125 4.96875 11.34375 4.980469 11.367188 4.984375 C 11.417969 4.996094 11.449219 5.007812 11.449219 5.007812 L 11.484375 5.015625 C 11.601562 5.054688 11.667969 5.179688 11.628906 5.296875 C 11.605469 5.371094 11.542969 5.425781 11.472656 5.445312 C 11.472656 5.445312 11.433594 5.453125 11.359375 5.46875 C 11.328125 5.476562 11.28125 5.480469 11.234375 5.480469 C 11.183594 5.484375 11.125 5.484375 11.066406 5.476562 C 11.003906 5.476562 10.9375 5.464844 10.867188 5.449219 C 10.796875 5.4375 10.730469 5.414062 10.65625 5.386719 C 10.585938 5.359375 10.511719 5.332031 10.441406 5.289062 C 10.371094 5.25 10.300781 5.203125 10.234375 5.160156 C 10.171875 5.105469 10.109375 5.054688 10.050781 4.996094 C 9.992188 4.945312 9.945312 4.878906 9.894531 4.820312 C 9.851562 4.757812 9.808594 4.695312 9.777344 4.632812 C 9.742188 4.574219 9.714844 4.511719 9.695312 4.453125 C 9.683594 4.425781 9.671875 4.398438 9.664062 4.371094 C 9.65625 4.34375 9.648438 4.3125 9.644531 4.289062 C 9.636719 4.261719 9.632812 4.238281 9.625 4.214844 C 9.621094 4.195312 9.621094 4.179688 9.621094 4.164062 C 9.613281 4.101562 9.613281 4.066406 9.613281 4.066406 C 9.609375 3.941406 9.710938 3.835938 9.835938 3.832031 C 9.917969 3.832031 9.992188 3.878906 10.035156 3.945312 Z M 10.035156 3.945312 "/>
</g>
</svg>

<svg xmlns="http://www.w3.org/2000/svg" width="16pt" height="16pt" viewBox="0 0 16 16"><defs><radialGradient id="b" cx="30.792" cy="85.808" r="21.667" fx="30.792" fy="85.808" gradientTransform="matrix(.125 0 0 .09134 0 3.245)" gradientUnits="userSpaceOnUse"><stop offset="0" style="stop-color:#ed7770;stop-opacity:1"/><stop offset=".9" style="stop-color:#ed7770;stop-opacity:0"/></radialGradient><radialGradient id="c" cx="97.208" cy="85.336" r="21.667" fx="97.208" fy="85.336" gradientTransform="matrix(.125 0 0 .09134 0 3.226)" gradientUnits="userSpaceOnUse"><stop offset="0" style="stop-color:#ed7770;stop-opacity:1"/><stop offset=".9" style="stop-color:#ed7770;stop-opacity:0"/></radialGradient><linearGradient id="a" x1="-10016" x2="-10016" y1="-3234.3" y2="-3146.3" gradientTransform="translate(-1244 -390.75)scale(-.125)" gradientUnits="userSpaceOnUse"><stop offset="0" style="stop-color:#40c0e7;stop-opacity:1"/><stop offset=".138" style="stop-color:#46c5c9;stop-opacity:1"/><stop offset=".532" style="stop-color:#55d479;stop-opacity:1"/><stop offset=".813" style="stop-color:#5fdd46;stop-opacity:1"/><stop offset=".95" style="stop-color:#63e133;stop-opacity:1"/></linearGradient></defs><path d="M8 14.984c-1.934 0-3.727-.636-5.047-1.8C1.512 11.91.75 10.117.75 8c0-2.11.762-3.895 2.203-5.172C4.277 1.656 6.07 1.016 8 1.016c3.492 0 7.25 2.183 7.25 6.984 0 4.8-3.758 6.984-7.25 6.984m0 0" style="stroke:none;fill-rule:nonzero;fill:url(#a)"/><path d="M8 1.266c1.879 0 3.613.613 4.879 1.726C14.266 4.211 15 5.942 15 8c0 2.066-.734 3.8-2.121 5.02-1.262 1.105-2.996 1.718-4.879 1.718-1.875 0-3.61-.62-4.879-1.742C1.734 11.77 1 10.043 1 8c0-2.035.734-3.758 2.121-4.984C4.395 1.886 6.13 1.266 8 1.266m0-.5C4.105.766.5 3.356.5 8c0 4.672 3.605 7.234 7.5 7.234s7.5-2.5 7.5-7.234C15.5 3.29 11.895.766 8 .766m0 0" style="stroke:none;fill-rule:nonzero;fill:#47a9b0;fill-opacity:1"/><path d="M6.34 11.082c0-1.055-1.117-1.91-2.492-1.91s-2.489.855-2.489 1.91 1.114 1.91 2.489 1.91 2.492-.855 2.492-1.91m0 0" style="stroke:none;fill-rule:nonzero;fill:url(#b)"/><path d="M14.64 11.02c0-1.055-1.113-1.91-2.488-1.91s-2.492.855-2.492 1.91 1.117 1.91 2.492 1.91 2.489-.856 2.489-1.91m0 0" style="stroke:none;fill-rule:nonzero;fill:url(#c)"/><path d="M42.875 79.625c1.938 2.188 3.344 6.688 3.281 9.625s-1.25 5.844-3.281 7.969M85.125 79.375c-1.937 2.219-3.344 6.938-3.281 9.875s1.25 5.844 3.281 7.969" style="fill:none;stroke-width:5.2632;stroke-linecap:round;stroke-linejoin:round;stroke:#242424;stroke-opacity:1;stroke-miterlimit:10" transform="scale(.125)"/><path d="M46.156 89.25s4.063-5.062 17.188-5.062 18.5 5.062 18.5 5.062" style="fill:none;stroke-width:5.2632;stroke-linecap:round;stroke-linejoin:round;stroke:#242424;stroke-opacity:1;stroke-miterlimit:10" transform="scale(.125)"/><path d="M10.344 5.836c.523 0 1 .441 1 1.18 0 .734-.477 1.175-1 1.175-.524 0-1-.441-1-1.175 0-.739.476-1.18 1-1.18M5.648 5.836c-.523 0-1 .441-1 1.18 0 .734.477 1.175 1 1.175.524 0 1-.441 1-1.175 0-.739-.476-1.18-1-1.18m0 0" style="stroke:none;fill-rule:nonzero;fill:#242424;fill-opacity:1"/><path d="M6.387 4.07s0 .035-.004.094c-.004.016-.004.031-.008.055-.004.02-.012.047-.016.07l-.023.086c-.008.027-.02.05-.031.082q-.03.087-.082.18a2 2 0 0 1-.118.187c-.05.059-.097.121-.156.176-.054.059-.12.11-.183.16a2 2 0 0 1-.207.133c-.067.039-.145.066-.215.098q-.105.036-.211.062c-.07.012-.137.024-.195.027-.063.008-.118.004-.168.004a1 1 0 0 1-.13-.015l-.109-.02a.223.223 0 0 1-.164-.27.23.23 0 0 1 .149-.16l.039-.011q0-.001.078-.02c.027-.004.054-.015.09-.027a1 1 0 0 0 .109-.035q.064-.02.129-.051c.047-.016.09-.043.137-.062.047-.028.093-.051.14-.083.047-.027.09-.062.137-.093.043-.035.09-.067.129-.106.043-.035.078-.074.117-.11.031-.038.074-.073.102-.112l.082-.106c.027-.039.05-.066.066-.094l.024-.035q.016-.018.027-.043c.027-.05.047-.082.047-.082a.224.224 0 0 1 .312-.078c.07.04.11.117.106.2M10.035 3.945s.02.032.047.086c.008.012.016.032.023.043.008.008.02.024.028.035.015.024.039.055.062.09q.038.052.086.106c.028.039.067.074.102.113q.053.054.117.11c.04.038.082.07.129.105.043.031.09.07.137.094q.07.045.14.082c.047.02.09.046.137.066.043.016.086.035.125.047q.06.026.113.039c.031.008.063.02.086.023.051.012.082.024.082.024l.035.008a.224.224 0 0 1-.011.43q-.002 0-.114.023a.6.6 0 0 1-.125.011 1 1 0 0 1-.168-.003 1 1 0 0 1-.199-.028 1 1 0 0 1-.21-.062c-.071-.028-.145-.055-.216-.098-.07-.039-.14-.086-.207-.129-.062-.055-.125-.105-.183-.164-.059-.05-.106-.117-.156-.176a1.6 1.6 0 0 1-.2-.367q-.018-.041-.03-.082a1 1 0 0 1-.02-.082q-.01-.04-.02-.074-.005-.029-.004-.05c-.008-.063-.008-.099-.008-.099a.23.23 0 0 1 .223-.234c.082 0 .156.047.2.113m0 0" style="stroke:none;fill-rule:nonzero;fill:#6d4c41;fill-opacity:1"/></svg>
